X: 20514
T: GALOP FROM "THE CORSAIR."
C: Bochsa.
%R: galop, polka.
B: W. Hamilton "Universal Tune-Book" Vol. 2 Glasgow 1846 p.51 #4
S: http://s3-eu-west-1.amazonaws.com/itma.dl.printmaterial/book_pdfs/hamiltonvol2web.pdf
Z: 2016 John Chambers <jc:trillian.mit.edu>
M: 2/4
L: 1/8
K: G
% - - - - - - - - - - - - - - - - - - - - - - - - -
G/G/ !p!|\
Ggg d/e/ | dBB e/e/ | eAAa | agd !f!G/G/ |\
Ggg d/e/ | (dB/c/) BD | BABg | ff/e/ d2 :|
|: d/c/ |\
Bc^cd | GA^AB !f!| "^>"ed"^>"ed | "^>"ed"^>"ed |\
!p!Bc^cd | GA^AB | "^>"ed"^>"ed | Bd/B/ G :|
% - - - - - - - - - - - - - - - - - - - - - - - - -

%%sep 1 1 500
%%sep 1 1 500

